svgs/sharp-solid/microphone-slash.svg

<svg xmlns="http://www.w3.org/2000/svg" viewBox="0 0 640 512"><!--! Font Awesome Pro 6.6.0 by @fontawesome - https://fontawesome.com License - https://fontawesome.com/license (Commercial License) Copyright 2024 Fonticons, Inc. --><path d="M224 0L416 0l0 300.2 18 14c8.9-17.5 14-37.2 14-58.2l0-40 0-24 48 0 0 24 0 40c0 32.1-8.6 62.1-23.6 88L620.9 459.3l19 14.7-29.4 37.9-19-14.7L18.9 52.7 0 38 29.4 .1l19 14.7L224 151.1 224 0zM358.2 378.2l43.1 33.9c-17.6 9.2-36.9 15.4-57.3 18.2l0 33.6 48 0 24 0 0 48-24 0-72 0-72 0-24 0 0-48 24 0 48 0 0-33.6C210.1 418.7 144 345.1 144 256l0-40 0-6.5 48 37.8 0 8.7c0 70.7 57.3 128 128 128c13.3 0 26.1-2 38.2-5.8z"/></svg>

<svg xmlns="http://www.w3.org/2000/svg" viewBox="0 0 640 512"><!--! Font Awesome Pro 6.4.0 by @fontawesome - https://fontawesome.com License - https://fontawesome.com/license (Commercial License) Copyright 2023 Fonticons, Inc. --><path d="M224 0H416V300.2l18 14c8.9-17.5 14-37.2 14-58.2V216 192h48v24 40c0 32.1-8.6 62.1-23.6 88L620.9 459.3l19 14.7-29.4 37.9-19-14.7L19 52.7 0 38 29.4 .1l19 14.7L224 151.1V0zM358.2 378.2l43.1 33.9c-17.6 9.2-36.9 15.4-57.3 18.2V464h48 24v48H392 320 248 224V464h24 48V430.4C210.2 418.7 144 345.1 144 256V216v-6.5l48 37.8V256c0 70.7 57.3 128 128 128c13.3 0 26.1-2 38.2-5.8z"/></svg>
